svg/mcv4u/strange-function.svg

<svg xmlns="http://www.w3.org/2000/svg" viewBox="0 0 486.208 359.496" xml:space="preserve"><path fill="none" stroke="#CCC" stroke-miterlimit="10" d="M420.183 31.748v301m-50-301v301m-50-301v301m-50-301v301m-50-301v301m-50-301v301m-50-301v301m-50-301v301m400.5-250.5h-451m451 50h-451m451 50h-451m451 50h-451m451 50h-451"/><path fill="none" stroke="#000" stroke-miterlimit="10" d="M464.683 332.248h-444.5v-294.5"/><path d="m461.743 328.469 1.573 3.703-1.573 3.703 8.778-3.703zM23.724 40.45l-3.703-1.573-3.703 1.573 3.703-8.778z"/><text transform="translate(475.132 337.972)" font-family="'Equity Text B'" font-style="italic" font-size="24">x</text><text transform="translate(6.133 20.472)"><tspan x="0" y="0" font-family="'Equity Text B'" font-style="italic" font-size="24" letter-spacing="2">f</tspan><tspan x="9.384" y="0" font-family="'Equity Text B'" font-size="24">(</tspan><tspan x="17.231" y="0" font-family="'Equity Text B'" font-style="italic" font-size="24">x</tspan><tspan x="27.815" y="0" font-family="'Equity Text B'" font-size="24">)</tspan></text><path fill="none" stroke="#000" stroke-miterlimit="10" d="M14.683 82.248h5m-5 50h5m-5 50h5m-5 50h5m-5 50h5m400.5 50.5v5m-50-5v5m-50-5v5m-50-5v5m-50-5v5m-50-5v5m-50-5v5m-50-5v5"/><text transform="translate(66.227 355.817)" font-family="'Concourse T3'" font-size="16">1</text><text transform="translate(1.6 287.746)" font-family="'Concourse T3'" font-size="16">1</text><text transform="translate(.16 237.746)" font-family="'Concourse T3'" font-size="16">2</text><text transform="translate(.48 187.746)" font-family="'Concourse T3'" font-size="16">3</text><text transform="translate(0 137.746)" font-family="'Concourse T3'" font-size="16">4</text><text transform="translate(.16 87.746)" font-family="'Concourse T3'" font-size="16">5</text><text transform="translate(116.027 355.817)" font-family="'Concourse T3'" font-size="16">2</text><text transform="translate(165.527 355.817)" font-family="'Concourse T3'" font-size="16">3</text><text transform="translate(215.227 355.817)" font-family="'Concourse T3'" font-size="16">4</text><text transform="translate(265.527 355.817)" font-family="'Concourse T3'" font-size="16">5</text><text transform="translate(315.606 355.817)" font-family="'Concourse T3'" font-size="16">6</text><text transform="translate(365.786 355.817)" font-family="'Concourse T3'" font-size="16">7</text><text transform="translate(415.766 355.817)" font-family="'Concourse T3'" font-size="16">8</text><path fill="none" stroke="#000" stroke-width="2" stroke-miterlimit="10" d="M19.521 282.172s117.431 52.753 150.204-51.449 100-98.311 100-98.311m0 149.76s17.647 28.383 75.63 28.383c22.689-84.874 47.81-140.362 125.166-178.177"/><circle cx="270.07" cy="232.412" r="4"/><circle fill="#FFF" stroke="#000" stroke-miterlimit="10" cx="270.07" cy="132.412" r="4"/><circle fill="#FFF" stroke="#000" stroke-miterlimit="10" cx="270.07" cy="282.412" r="4"/></svg>

<svg xmlns="http://www.w3.org/2000/svg" viewBox="0 0 486.208 359.496" xml:space="preserve"><path fill="none" stroke="#CCC" stroke-miterlimit="10" d="M420.183 31.748v301M370.183 31.748v301M320.183 31.748v301M270.183 31.748v301M220.183 31.748v301M170.183 31.748v301M120.183 31.748v301M70.183 31.748v301M470.683 82.248h-451M470.683 132.248h-451M470.683 182.248h-451M470.683 232.248h-451M470.683 282.248h-451"/><path fill="none" stroke="#000" stroke-miterlimit="10" d="M464.683 332.248h-444.5v-294.5"/><path d="m461.743 328.469 1.573 3.703-1.573 3.703 8.778-3.703zM23.724 40.45l-3.703-1.573-3.703 1.573 3.703-8.778z"/><text transform="translate(475.132 337.972)" font-family="'Equity Text B'" font-style="italic" font-size="24">x</text><text transform="translate(6.133 20.472)"><tspan x="0" y="0" font-family="'Equity Text B'" font-style="italic" font-size="24" letter-spacing="2">f</tspan><tspan x="9.384" y="0" font-family="'Equity Text B'" font-size="24">(</tspan><tspan x="17.231" y="0" font-family="'Equity Text B'" font-style="italic" font-size="24">x</tspan><tspan x="27.815" y="0" font-family="'Equity Text B'" font-size="24">)</tspan></text><path fill="none" stroke="#000" stroke-miterlimit="10" d="M14.683 82.248h5M14.683 132.248h5M14.683 182.248h5M14.683 232.248h5M14.683 282.248h5M420.183 332.748v5M370.183 332.748v5M320.183 332.748v5M270.183 332.748v5M220.183 332.748v5M170.183 332.748v5M120.183 332.748v5M70.183 332.748v5"/><text transform="translate(66.227 355.817)" font-family="'Concourse T3'" font-size="16">1</text><text transform="translate(1.6 287.746)" font-family="'Concourse T3'" font-size="16">1</text><text transform="translate(.16 237.746)" font-family="'Concourse T3'" font-size="16">2</text><text transform="translate(.48 187.746)" font-family="'Concourse T3'" font-size="16">3</text><text transform="translate(0 137.746)" font-family="'Concourse T3'" font-size="16">4</text><text transform="translate(.16 87.746)" font-family="'Concourse T3'" font-size="16">5</text><text transform="translate(116.027 355.817)" font-family="'Concourse T3'" font-size="16">2</text><text transform="translate(165.527 355.817)" font-family="'Concourse T3'" font-size="16">3</text><text transform="translate(215.227 355.817)" font-family="'Concourse T3'" font-size="16">4</text><text transform="translate(265.527 355.817)" font-family="'Concourse T3'" font-size="16">5</text><text transform="translate(315.606 355.817)" font-family="'Concourse T3'" font-size="16">6</text><text transform="translate(365.786 355.817)" font-family="'Concourse T3'" font-size="16">7</text><text transform="translate(415.766 355.817)" font-family="'Concourse T3'" font-size="16">8</text><path fill="none" stroke="#000" stroke-width="2" stroke-miterlimit="10" d="M19.521 282.172s117.431 52.753 150.204-51.449 100-98.311 100-98.311M269.725 282.172s17.647 28.383 75.63 28.383c22.689-84.874 47.81-140.362 125.166-178.177"/><circle fill="#000" cx="270.07" cy="232.412" r="4"/><circle fill="#FFF" stroke="#000" stroke-miterlimit="10" cx="270.07" cy="132.412" r="4"/><circle fill="#FFF" stroke="#000" stroke-miterlimit="10" cx="270.07" cy="282.412" r="4"/></svg>
